X: 2
T: Hanerot Halalu
C: Words (from the liturgy), ??? (music)
Z: Gideon Klionsky
M: 4/4
L: 1/8
%R: fcfc
Q: 1/4=72
K:Dm
%
"Dm" DD(DF) "C" (ED/E/) C>(C | "Dm" F)F"C"E(D/C/) "Dm"D4 | "Dm" DD(DF) "C" (ED/E/) C>(C | "Dm" F)F"C"E(D/C/) "Dm"D4 |
"F" FG(Ac) "Gm" G3(G | "Gm" B)BA(G/F/) "C7" G4 | "F" FG(Ac) "Gm" G3(G | "Gm"B)BA(G/F/) "C7" G4 |
"Dm"F2 "C"(ED/C/) "Dm"D2 "Gm"G2 | "Dm" FF "C" E(D/C/) "Dm"D4 | "Dm"F2 "C"(ED/C/) "Dm"D2 "Gm"G2 | "Dm" FF "C" E(D/C/) "Dm"D4|]
%
W:(x2) הַנֵּרוֹת הַלָּלוּ אָנוּ מַדְלִיקִין
W:עַל הַנִּסִּים וְעַל הַנִּפְלָאוֹת
W:וְעַל הַתְּשׁוּעוֹת וְעַל הַמִּלְחָמוֹת
W:שֶׁעָשִׂיתָ לַאֲבוֹתֵינוּ בַּיָּמִים הָהֵם בַּזְּמַן הַזֶּה
W:
W:Haneirot hallalu anu madlikin (x2)
W:Al hanissim v’al hanifla’ot
W:V’al hat’shu’ot v’al hamilchamot
W:She’asita la’avoteinu bayamim haheim baz’man hazeh

